www/img/logo/logo.svg

<svg width="150" height="38" viewBox="0 0 150 38" fill="none" xmlns="http://www.w3.org/2000/svg">
        <g clip-path="url(#clip0_120:851)">
            <path d="M18.5404 0.683594V4.88281H4.73373V13.1836H16.075V17.1875H4.73373V29.3945H0V0.683594H18.5404Z"
                fill="#911C1C" />
            <path
                d="M25.9369 0.78125C26.4299 1.26953 26.7258 1.95312 26.7258 2.73437C26.7258 3.51562 26.4299 4.10156 25.9369 4.58984C25.4438 5.07812 24.7534 5.37109 23.9645 5.37109C23.1755 5.37109 22.5838 5.07812 21.9921 4.58984C21.499 4.10156 21.2031 3.41797 21.2031 2.73437C21.2031 1.95312 21.499 1.36719 21.9921 0.78125C22.4852 0.292969 23.1755 0 23.9645 0C24.7534 0 25.3451 0.292969 25.9369 0.78125ZM26.1341 8.39844V29.3945H21.6962V8.39844H26.1341Z"
                fill="#911C1C" />
            <path
                d="M32.4457 27.7344C30.6705 26.4648 29.783 24.707 29.783 22.4609H34.1222C34.2208 23.5352 34.7139 24.5117 35.7001 25.1953C36.6863 25.8789 37.8697 26.2695 39.349 26.2695C40.7297 26.2695 41.8145 25.9766 42.7021 25.4883C43.5897 25 43.9841 24.3164 43.9841 23.4375C43.9841 22.7539 43.7869 22.2656 43.3924 21.875C42.998 21.4844 42.5049 21.2891 41.8145 21.0938C41.1242 20.8984 40.138 20.8008 38.8559 20.6055H38.7573L38.1656 20.5078C36.4891 20.3125 35.0098 20.0195 33.925 19.6289C32.8402 19.2383 31.854 18.6523 31.2622 17.8711C30.5719 17.0898 30.2761 16.1133 30.2761 14.7461C30.2761 13.4766 30.6705 12.3047 31.3609 11.3281C32.0512 10.3516 33.136 9.57031 34.4181 8.98438C35.7001 8.39844 37.1794 8.20312 38.8559 8.20312C41.5187 8.20312 43.6883 8.78906 45.2662 9.96094C46.9427 11.1328 47.8303 12.793 47.9289 14.9414H43.5897C43.491 13.9648 42.998 13.1836 42.1104 12.5977C41.2228 12.0117 40.138 11.6211 38.8559 11.6211C37.5739 11.6211 36.4891 11.9141 35.7987 12.4023C35.0098 12.8906 34.6153 13.5742 34.6153 14.4531C34.6153 15.0391 34.8125 15.5273 35.1084 15.8203C35.5029 16.1133 35.996 16.3086 36.5877 16.5039C37.1794 16.6016 38.067 16.7969 39.2504 16.8945C39.349 16.8945 39.349 16.8945 39.4477 16.8945C39.5463 16.8945 39.5463 16.8945 39.6449 16.8945C41.5187 17.0898 42.998 17.3828 44.28 17.7734C45.4634 18.1641 46.5482 18.75 47.2386 19.6289C48.0275 20.5078 48.422 21.6797 48.422 23.1445C48.422 24.4141 48.0275 25.5859 47.2386 26.5625C46.4496 27.5391 45.3648 28.3203 43.9841 28.9063C42.6035 29.3945 41.1242 29.6875 39.349 29.6875C36.4891 29.5898 34.2208 29.0039 32.4457 27.7344Z"
                fill="#911C1C" />
            <path
                d="M56.5089 0.683594V13.4766L55.8186 12.5C56.5089 11.2305 57.4951 10.1563 58.6786 9.375C59.862 8.59375 61.3413 8.20312 63.215 8.20312C65.7791 8.20312 67.8501 8.98438 69.4281 10.4492C71.006 12.0117 71.7949 14.4531 71.7949 17.8711V29.3945H67.3571V18.0664C67.3571 16.1133 66.9626 14.5508 66.075 13.4766C65.1874 12.4023 63.9054 11.9141 62.3275 11.9141C61.144 11.9141 60.1578 12.207 59.2703 12.6953C58.3827 13.2813 57.791 14.0625 57.2979 15.0391C56.8048 16.0156 56.6075 17.2852 56.6075 18.6523V29.2969H52.1697V0.683594H56.5089Z"
                fill="#911C1C" />
            <path
                d="M112.13 8.39844L118.047 24.6094L123.767 8.39844H128.501L118.935 32.6172C118.442 33.8867 117.949 34.8633 117.554 35.5469C117.16 36.2305 116.667 36.7187 115.976 37.0117C115.385 37.3047 114.596 37.5 113.511 37.5H108.679V33.5937H111.834C112.426 33.5937 112.919 33.4961 113.215 33.3984C113.511 33.3008 113.807 33.1055 114.004 32.8125C114.201 32.5195 114.398 32.0312 114.694 31.4453L115.582 29.3945L107.298 8.30078H112.13V8.39844Z"
                fill="#911C1C" />
            <path
                d="M134.418 28.2227C132.742 27.3438 131.46 26.0742 130.572 24.5117C129.684 22.8516 129.191 20.9961 129.191 18.8477C129.191 16.6992 129.586 14.7461 130.473 13.1836C131.361 11.6211 132.544 10.3516 134.122 9.47266C135.7 8.59375 137.475 8.10547 139.546 8.10547C141.617 8.10547 143.393 8.49609 144.97 9.27734C146.548 10.0586 147.732 11.2305 148.619 12.793C149.507 14.3555 150 16.1133 150 18.0664C150 18.3594 150 18.5547 150 18.8477C150 19.1406 150 19.4336 149.901 19.7266H133.925C133.925 19.8242 133.925 19.8242 133.925 19.8242V19.9219C134.024 21.0938 134.221 22.168 134.714 23.0469C135.207 23.9258 135.898 24.6094 136.785 25.0977C137.673 25.5859 138.659 25.8789 139.842 25.8789C141.223 25.8789 142.406 25.5859 143.294 24.9023C144.28 24.2188 144.872 23.3398 145.168 22.168H149.704C149.408 23.5352 148.915 24.8047 148.028 25.8789C147.14 26.9531 146.055 27.832 144.773 28.5156C143.393 29.1016 141.913 29.4922 140.237 29.4922C138.067 29.5898 136.095 29.1016 134.418 28.2227ZM137.081 12.3047C136.292 12.6953 135.602 13.2813 135.109 14.0625C134.615 14.8438 134.221 15.625 134.122 16.6016H145.464C145.266 15.0391 144.675 13.7695 143.688 12.9883C142.702 12.1094 141.322 11.7188 139.744 11.7188C138.856 11.6211 137.969 11.9141 137.081 12.3047Z"
                fill="#911C1C" />
            <path
                d="M101.578 5.95703H96.9428L94.2801 3.02734H85.503L82.8403 5.95703H78.2052C76.6273 5.95703 75.2466 7.22656 75.2466 8.88672V26.2695C75.2466 27.832 76.5286 29.1992 78.2052 29.1992H101.578C103.156 29.1992 104.537 27.9297 104.537 26.2695V8.78906C104.537 7.22656 103.254 5.95703 101.578 5.95703ZM101.578 26.1719H78.3038V8.78906H84.2209L86.8837 5.85937H93.0967L95.6608 8.78906H101.578V26.1719ZM89.9409 10.2539C85.8975 10.2539 82.643 13.4766 82.643 17.4805C82.643 21.4844 85.8975 24.707 89.9409 24.707C93.9842 24.707 97.2387 21.4844 97.2387 17.4805C97.2387 13.4766 93.9842 10.2539 89.9409 10.2539ZM89.9409 21.875C87.574 21.875 85.6016 19.9219 85.6016 17.5781C85.6016 15.2344 87.574 13.2812 89.9409 13.2812C92.3077 13.2812 94.2801 15.2344 94.2801 17.5781C94.2801 19.9219 92.3077 21.875 89.9409 21.875Z"
                fill="#911C1C" />
        </g>
        <defs>
            <clipPath id="clip0_120:851">
                <rect width="150" height="37.5" fill="white" />
            </clipPath>
        </defs>
    </svg>

<svg width="150" height="38" fill="none" xmlns="http://www.w3.org/2000/svg"><g clip-path="url(#clip0_120:851)" fill="#911C1C"><path d="M18.54.684v4.199H4.734v8.3h11.341v4.005H4.734v12.207H0V.684h18.54zM25.937.781c.493.489.789 1.172.789 1.953 0 .782-.296 1.368-.79 1.856-.492.488-1.183.781-1.971.781-.79 0-1.381-.293-1.973-.781a2.655 2.655 0 01-.789-1.856c0-.78.296-1.367.79-1.953C22.484.293 23.175 0 23.964 0c.788 0 1.38.293 1.972.781zm.197 7.617v20.997h-4.438V8.398h4.438zM32.446 27.734c-1.775-1.27-2.663-3.027-2.663-5.273h4.34c.098 1.074.59 2.05 1.577 2.734.986.684 2.17 1.075 3.649 1.075 1.38 0 2.466-.293 3.353-.782.888-.488 1.282-1.172 1.282-2.05 0-.684-.197-1.172-.592-1.563-.394-.39-.887-.586-1.578-.781-.69-.196-1.676-.293-2.958-.489h-.099l-.591-.097c-1.677-.195-3.156-.488-4.241-.88-1.085-.39-2.071-.976-2.663-1.757-.69-.781-.986-1.758-.986-3.125a5.88 5.88 0 011.085-3.418c.69-.976 1.775-1.758 3.057-2.344 1.282-.586 2.761-.78 4.438-.78 2.663 0 4.832.585 6.41 1.757 1.677 1.172 2.564 2.832 2.663 4.98h-4.34c-.098-.976-.591-1.757-1.479-2.343a5.82 5.82 0 00-3.254-.977c-1.282 0-2.367.293-3.057.781-.79.489-1.184 1.172-1.184 2.051 0 .586.197 1.074.493 1.367.395.293.888.489 1.48.684.591.098 1.479.293 2.662.39h.395c1.874.196 3.353.489 4.635.88 1.183.39 2.268.976 2.959 1.855.789.879 1.183 2.05 1.183 3.515 0 1.27-.394 2.442-1.183 3.419-.79.976-1.874 1.757-3.255 2.343-1.38.489-2.86.782-4.635.782-2.86-.098-5.128-.684-6.903-1.954zM56.509.684v12.793l-.69-.977a8.756 8.756 0 012.86-3.125c1.183-.781 2.662-1.172 4.536-1.172 2.564 0 4.635.781 6.213 2.246 1.578 1.563 2.367 4.004 2.367 7.422v11.524h-4.438V18.066c0-1.953-.394-3.515-1.282-4.59-.888-1.074-2.17-1.562-3.748-1.562-1.183 0-2.17.293-3.057.781-.887.586-1.479 1.367-1.972 2.344-.493.977-.69 2.246-.69 3.613v10.645H52.17V.684h4.339zM112.13 8.398l5.917 16.211 5.72-16.21h4.734l-9.566 24.218a21.347 21.347 0 01-1.381 2.93c-.394.684-.887 1.172-1.578 1.465-.591.293-1.38.488-2.465.488h-4.832v-3.906h3.155c.592 0 1.085-.098 1.381-.196a1.53 1.53 0 00.789-.586c.197-.292.394-.78.69-1.367l.888-2.05L107.298 8.3h4.832v.097zM134.418 28.223a9.356 9.356 0 01-3.846-3.711c-.888-1.66-1.381-3.516-1.381-5.664 0-2.149.395-4.102 1.282-5.664.888-1.563 2.071-2.832 3.649-3.711 1.578-.88 3.353-1.368 5.424-1.368s3.847.391 5.424 1.172c1.578.782 2.762 1.954 3.649 3.516A10.515 10.515 0 01150 18.066v.782c0 .293 0 .586-.099.879h-15.976v.195c.099 1.172.296 2.246.789 3.125a5.208 5.208 0 002.071 2.05 6.17 6.17 0 003.057.782c1.381 0 2.564-.293 3.452-.977.986-.683 1.578-1.562 1.874-2.734h4.536c-.296 1.367-.789 2.637-1.676 3.71a10.708 10.708 0 01-3.255 2.638c-1.38.586-2.86.976-4.536.976-2.17.098-4.142-.39-5.819-1.27zm2.663-15.918a4.853 4.853 0 00-1.972 1.758c-.494.78-.888 1.562-.987 2.539h11.342c-.198-1.563-.789-2.832-1.776-3.614-.986-.879-2.366-1.27-3.944-1.27-.888-.097-1.775.196-2.663.587zM101.578 5.957h-4.635l-2.663-2.93h-8.777l-2.663 2.93h-4.635c-1.578 0-2.958 1.27-2.958 2.93V26.27a2.952 2.952 0 002.958 2.93h23.373c1.578 0 2.959-1.27 2.959-2.93V8.79c0-1.563-1.283-2.833-2.959-2.833zm0 20.215H78.304V8.789h5.917l2.663-2.93h6.213l2.564 2.93h5.917v17.383zM89.941 10.254c-4.044 0-7.298 3.223-7.298 7.226 0 4.004 3.254 7.227 7.298 7.227 4.043 0 7.298-3.223 7.298-7.227 0-4.003-3.255-7.226-7.298-7.226zm0 11.621c-2.367 0-4.34-1.953-4.34-4.297 0-2.344 1.973-4.297 4.34-4.297s4.34 1.953 4.34 4.297c0 2.344-1.973 4.297-4.34 4.297z"/></g><defs><clipPath id="clip0_120:851"><path fill="#fff" d="M0 0h150v37.5H0z"/></clipPath></defs></svg>
